svgs/duotone/joystick.svg

<svg xmlns="http://www.w3.org/2000/svg" viewBox="0 0 448 512"><!-- Font Awesome Pro 6.0.0-alpha2 by @fontawesome - https://fontawesome.com License - https://fontawesome.com/license (Commercial License) --><defs><style>.fa-secondary{opacity:.4}</style></defs><path d="M128 352V336C128 327.125 120.875 320 112 320H80C71.125 320 64 327.125 64 336V352H128ZM256 218.797V352H192V218.797C202.203 221.859 212.801 224 224 224S245.797 221.859 256 218.797Z" class="fa-secondary"/><path d="M416 352H32C14.375 352 0 366.375 0 384V480C0 497.625 14.375 512 32 512H416C433.625 512 448 497.625 448 480V384C448 366.375 433.625 352 416 352ZM224 224C285.855 224 336 173.855 336 112S285.855 0 224 0S112 50.145 112 112S162.145 224 224 224ZM200 48C213.25 48 224 58.75 224 72S213.25 96 200 96S176 85.25 176 72S186.75 48 200 48Z" class="fa-primary"/></svg>

<svg xmlns="http://www.w3.org/2000/svg" viewBox="0 0 448 512"><!--! Font Awesome Pro 6.3.0 by @fontawesome - https://fontawesome.com License - https://fontawesome.com/license (Commercial License) Copyright 2023 Fonticons, Inc. --><defs><style>.fa-secondary{opacity:.4}</style></defs><path class="fa-primary" d="M416 352H32c-17.62 0-32 14.38-32 32v96c0 17.62 14.38 32 32 32h384c17.62 0 32-14.38 32-32v-96C448 366.4 433.6 352 416 352zM224 224c61.86 0 112-50.15 112-112S285.9-.0002 224-.0002S111.1 50.14 111.1 111.1S162.1 224 224 224zM200 48C213.3 48 224 58.75 224 72S213.3 96 200 96S176 85.25 176 72S186.8 48 200 48z"/><path class="fa-secondary" d="M128 352V336C128 327.1 120.9 320 112 320h-32C71.12 320 64 327.1 64 336v16.01H128zM256 218.8V352H192V218.8C202.2 221.8 212.8 224 224 224S245.8 221.8 256 218.8z"/></svg>
